unite@hardpixel.eu/themes/default-light/minimize-active.svg

<svg height="16" width="16" xmlns="http://www.w3.org/2000/svg">
  <path d="m7.9980469 1c-1.7914561.0005827-3.5828284.685455-4.9492188 2.0527344-2.73278076 2.7345591-2.73065285 7.1656576.0039063 9.8984376 2.7345536 2.732786 7.1656516 2.730648 9.8984376-.003906s2.730647-7.1656517-.003906-9.8984379c-1.36728-1.3663902-3.1577631-2.0494108-4.9492191-2.0488281zm-1.9980469 6h4c.554 0 1 .446 1 1s-.446 1-1 1h-4c-.554 0-1-.446-1-1s.446-1 1-1z" fill="#8e8e8e"/>
</svg>

<?xml version="1.0" encoding="UTF-8" standalone="no"?>
<svg xmlns="http://www.w3.org/2000/svg" version="1.0" height="16" width="16">
  <path fill="#8e8e8e" d="M 7.9980469,1 C 6.2065908,1.0005827 4.4152185,1.685455 3.0488281,3.0527344 0.31604734,5.7872935 0.31817525,10.218392 3.0527344,12.951172 5.787288,15.683958 10.218386,15.68182 12.951172,12.947266 15.683958,10.212712 15.681819,5.7816143 12.947266,3.0488281 11.579986,1.6824379 9.7895029,0.9994173 7.9980469,1 Z M 6,7 h 4 c 0.554,0 1,0.446 1,1 0,0.554 -0.446,1 -1,1 H 6 C 5.446,9 5,8.554 5,8 5,7.446 5.446,7 6,7 Z" />
</svg>
